X:20
T:Merry Milk Maids
T:John Malchairs Third Collection of Tunes
%%VWML:Malchair-3619-p20
F:https://www.vwml.org/record/Malchair/3619/p20
F:www.vwml.org/topics/historic-dance-and-tune-books/Malchair
Z:Peter Dunk Jan 2020
M:C|
L:1/8
K:A
A2C2C2 BA|e4a4|e2c2f2A2|G4E4|
F2D2F2A2|G2B2e2 ag|fedc B3A|A4c4||
e2cd e2cd|edcB A4|B2GA B2GA|BAGF E4|
e2fg e2ga|g2fe a3e|fedc Bc A2|A4c4||
(dc)(BA) A2e2|c4A4|B2F2F2B2|G4E4|
F2D2F2B2|GAB2 e2ag|fedc B3 A|A4c4||
a2e2a4|f2e2f4|e2dc BcBA|GAB2 G2E2|
F2ED F2A2|GAB2 e2 ag|fedc B3A|A4c4|]
W:
T:Trip to the Boar, A
T:John Malchairs Third Collection of Tunes
F:https://www.vwml.org/record/Malchair/3619/p20
F:www.vwml.org/topics/historic-dance-and-tune-books/Malchair
Z:Peter Dunk Jan 2020
M:3/2
L:1/8
K:G
e^def e2B2B2e2|^d6 e2f2B2|gfga g2fe ^de f2|B2 e4 ^d2 e4|
g3f e2dc Bcd2|e2 A4 d2d2 G2|c3B AGF2 FGA2|D2 G4 F2 G4||
dcde d2B2 B2e2|A3G ABcd B2G2|gfed ^cde2 A2a2|f2 d4 ^c2 d4|
ABc2 cde2 e4|EFG2 GAB2 B4|^c3B cdef ^d2B2|gf e2 e2^d2 e4|]

